X:1
T:Good Day and Welcome, Dear Christmas Tree
T:Arranged from Edvard H. Grieg (1843-1907)
T:Good Day and Welcome, Dear Christmas Tree
T:Public Domain
T:Public Domain
C:Arranged from Edvard H. Grieg (1843-1907)
Z:Public Domain
%%score ( 1 2 ) ( 3 4 )
L:1/8
M:6/8
K:Eb
V:1 treble 
V:2 treble 
V:3 bass 
V:4 bass 
V:1
 (g2 e g>fe [Ge]3- [Ge]2) || [B,B] | [EG]2 [B,E]!<(! [=B,G]>[B,F]!<)![B,E] | %3
w: ~ * * * * * *|and|wel- come, dear Christ- mas|
w: ~ * * * * * *|mas-|tide in the East- ern|
w: ~ * * * * * *|light|hour in the long a-|
 [CF]2!>(! [Ec] [DB]2!>)! [FB] | [EG]2 [B,E]!<(! [=B,G]>[B,F][B,E] | %5
w: tree! To young and|old bring- ing peace and|
w: land When God His|star in the heav- ens|
w: go Our mo- ther|taught us the heav’n- ly|
 [CF]2!<)! [Ec]!>(! [Dc][DB][FA]!>)! | [EG]2 [GB]!<(! [Ge][Gd][EB]!<)! | %7
w: plea- sure, ’Mid glow and|glim- mer and child- ren’s|
w: kin- dled, That all might|know, to the far- thest|
w: mes- sage, That Je- sus|broght to all men be-|
!>(! [Ec]2 [E=A]!>)! [DF]2!<(! [DB]!<)! |!>(! [Ec]2 [Fd]!>)! [Ec]!<(![DB]!<)![DB] | %9
w: glee, ’Bove fruits and|flags shines a bright star|
w: strand, To earth that|night He had sent child|
w: low, Those hours and|words can ne’er be for-|
 (cf)[Fd] [Ec][DB][FB] | [Ee]2 [Ed] [Ec]>[DB][CA] | [Ad]2 [Ac] [GB]>[FA]G | G3 B3 | [Ac]3 [Ad]3 | %14
w: gold- * en. That star shall|us, what- e’er be- tide|us, Tow’rd God on high!|||
w: Je- * sus. O won- drous|ry, what light and glo-|ry In Beth- le- hem!|||
w: got- * ten. Those mem- ’ries|ed thou bring’st un- taint-|ed, O Christ- mas tree!|||
 [Ge]4- [Ge] || %15
w: |
w: |
w: |
V:2
 G3 A3 x5 || x | x6 | x6 | x6 | x6 | x6 | x6 | x6 | E2 x4 | x6 | x5 G | c6- | x6 | x5 || %15
w: 1.~Good day|||||||||guide||||||
w: 2.~’Twas Christ-|||||||||sto-||||||
w: 3.~At twi-|||||||||saint-||||||
V:3
 (B,3 C3 [E,B,]3- [E,B,]2) || [B,,B,] | [E,B,]2 [E,G,] [E,G,]>[E,G,][E,G,] | %3
 [E,A,]2 [E,A,] [E,F,]2 [E,A,] | [E,B,]2 [E,G,]!<(! [E,G,]>[E,G,][E,G,] | %5
 [E,A,]2!<)! [E,A,] [E,A,][E,F,][E,B,] | [E,B,]2 [E,B,] [C,B,][C,B,][C,G,] | %7
!>(! [F,=A,]2 [F,C]!>)! [B,,B,]2!<(! [B,,F,]!<)! | %8
!>(! [B,,G,]2 [B,,=A,]!>)! [B,,F,]!<(![B,,B,]!<)![B,,F,] | %9
 [B,,G,]2 [B,,=A,] [B,,F,][B,,B,][_A,B,] | [G,B,]2 [G,B,] [A,C]>[A,D][A,E] | %11
 [F,D]2 [F,D] [G,D]>[G,C][G,B,] | E,3 =E,3 | [F,C]3 [B,,B,]3 | [E,B,]4- [E,B,] || %15
V:4
 E,6 x5 || x | x6 | x6 | x6 | x6 | x6 | x6 | x6 | x6 | x6 | x6 | C6- | x6 | x5 || %15

